source/images/icons/icon-editorial/souffleuse.svg

<?xml version="1.0" encoding="UTF-8"?>
<svg width="80px" height="80px" viewBox="0 0 80 80" version="1.1" xmlns="http://www.w3.org/2000/svg" xmlns:xlink="http://www.w3.org/1999/xlink">
    <!-- Generator: Sketch 55.2 (78181) - https://sketchapp.com -->
    <title>Illustrative Icons/Souffleuse</title>
    <desc>Created with Sketch.</desc>
    <g id="Illustrative-Icons/Souffleuse" stroke="none" stroke-width="1" fill="none" fill-rule="evenodd">
        <path d="M72.4000651,8 L71.8834634,8.03320317 C71.8834634,8.03320317 66.6333984,8.3166015 63.5667317,9.84993484 C58.1667317,12.5332682 55.3333334,16.9667317 55.3333334,22.650065 L55.3333334,31.3167317 C55.3333334,32.2333984 56.0833334,32.9833984 57,32.9833984 C57.9166667,32.9833984 58.6666667,32.2333984 58.6666667,31.3167317 L58.6666667,22.650065 C58.6666667,18.2833983 60.7667967,15.0001302 64.9667967,12.8834635 C66.7834634,11.9501302 68.8834634,11.7166015 70.3834634,11.5999348 L70.3834634,14.6500652 C67.4834634,15.4833985 63.6834634,17.7167317 63.7167967,22.150065 L63.7167967,41.3167317 L70.3834634,41.3167317 L70.3834634,67.9833984 L63.5332034,60.2666017 C63.6665367,59.5332684 63.7333984,58.7667317 63.7333984,57.9833984 C63.7333984,50.6333984 57.7500651,44.650065 50.4000651,44.650065 C43.5833984,44.650065 37.9333334,49.8166017 37.1666667,56.4332684 L33.5833334,56.4332684 C32.8166667,49.7999351 27.1666667,44.6334634 20.3333333,44.6334634 C17.9333333,44.6334634 15.6667968,45.2833984 13.7167968,46.400065 L13.7167968,41.2832034 L23.7832034,36.3167317 L50.4332684,36.349935 C51.2999351,36.349935 52.0332034,35.6833334 52.1165367,34.8333334 C52.1332034,34.5666667 52.1666667,34.299935 52.0833334,34.0166017 L47.6165367,15.8834635 C47.3998701,15.0667968 46.59987,14.55 45.7832034,14.6666667 L25.650065,14.6666667 C24.850065,14.6666667 24.0332034,15.1500652 23.8665367,15.9000652 C23.7832034,16.1000652 23.7333984,16.3167968 23.7333984,16.55013 L23.7333984,28.0667317 C23.7333984,28.9833984 24.4833984,29.7333984 25.400065,29.7333984 C26.3167317,29.7333984 27.050065,29 27.0667317,28.0833334 L27.0667317,18 L37.05013,17.9834 L37.05013,33.0166034 L23.7333984,33.0166034 L23.7333984,33.0332034 L11.4000652,38.4833984 C10.8333985,38.6167317 10.4001302,39.1333334 10.3834635,39.75 L10.3834635,49.0999351 C8.2834635,51.4666017 7,54.5667967 7,57.9667967 C7,65.3167967 12.9833333,71.3001301 20.3333333,71.3001301 C27.0666667,71.3001301 32.64987,66.2666017 33.5332034,59.7666017 L37.1832684,59.7666017 C38.0666017,66.2666017 43.650065,71.3167317 50.4000651,71.3167317 C55.6167317,71.3167317 60.1500001,68.3000001 62.3333334,63.9166667 L68.5,70.7500001 C68.7500001,71.1000001 69.1499351,71.3333334 69.5999351,71.3333334 L72.3665367,71.3333334 C73.0998701,71.3333334 73.6998701,70.7333334 73.6998701,70 L73.6998701,39.2832034 C73.6665367,38.5832034 73.0999351,38.0167317 72.4332684,37.9833984 L67.0667317,37.9833984 L67.0667317,22.150065 C67.0333984,18.500065 72.4000651,17.599935 72.4000651,17.599935 C73.1500651,17.4666017 73.7833984,16.9166017 73.7333984,16.2666015 L73.7333984,9.33333333 C73.7333984,8.6 73.1333984,8 72.4000651,8 Z M40.3665367,17.966795 L44.7167967,17.9833967 L48.3333334,33.0166 L40.3665367,33.0166 L40.3665367,17.966795 L40.3665367,17.966795 Z M57.0667317,37.9332684 C56.1333984,37.9332684 55.4000651,38.6832684 55.4000651,39.599935 C55.4000651,40.5166017 56.1500651,41.2666017 57.0667317,41.2666017 C57.9833984,41.2666017 58.7333984,40.5166017 58.7333984,39.599935 C58.7333984,38.6832684 57.9833984,37.9332684 57.0667317,37.9332684 Z M20.3001302,47.9667967 C25.8167967,47.9667967 30.3001302,52.4501301 30.3001302,57.9667967 C30.3001302,63.4834634 25.8167967,67.9667967 20.3001302,67.9667967 C14.7834635,67.9667967 10.3001302,63.4834634 10.3001302,57.9667967 C10.3001302,52.4501301 14.7834635,47.9667967 20.3001302,47.9667967 Z M50.3834634,47.9833967 C55.9001301,47.9833967 60.3834634,52.4667301 60.3834634,57.9833967 C60.3834634,63.5000634 55.8834634,67.9833967 50.3834634,67.9833967 C44.8667967,67.9833967 40.3834634,63.5000634 40.3834634,57.9833967 C40.3834634,52.4667301 44.8667967,47.9833967 50.3834634,47.9833967 Z M20.3834635,53.1500634 C17.6334633,53.1500634 15.3834635,55.4000634 15.3834635,58.1500634 C15.3834635,60.9000634 17.6334633,63.1500634 20.3834635,63.1500634 C23.1334634,63.1500634 25.3834635,60.9000634 25.3834635,58.1500634 C25.3834635,55.4000634 23.1334634,53.1500634 20.3834635,53.1500634 Z M50.4833984,53.1500634 C47.7333984,53.1500634 45.4833984,55.4000634 45.4833984,58.1500634 C45.4833984,60.9000634 47.7333984,63.1500634 50.4833984,63.1500634 C53.2333984,63.1500634 55.4833984,60.9000634 55.4833984,58.1500634 C55.4833984,55.4000634 53.2500651,53.1500634 50.4833984,53.1500634 Z M20.3834634,56.4833967 C21.30013,56.4833967 22.05013,57.2333967 22.05013,58.1500634 C22.05013,59.0667301 21.30013,59.8167301 20.3834634,59.8167301 C19.4667967,59.8167301 18.7167967,59.0667301 18.7167967,58.1500634 C18.7167967,57.2333967 19.4667967,56.4833967 20.3834634,56.4833967 Z M50.4833984,56.4833967 C51.4000651,56.4833967 52.1500651,57.2333967 52.1500651,58.1500634 C52.1500651,59.0667301 51.4000651,59.8167301 50.4833984,59.8167301 C49.5667317,59.8167301 48.8167317,59.0667301 48.8167317,58.1500634 C48.8167317,57.2333967 49.5667317,56.4833967 50.4833984,56.4833967 Z" id="Shape-color" fill="#ADB5BD"></path>
    </g>
</svg>

<svg width="80" height="80">
    <title>
        Illustrative Icons/Souffleuse
    </title>
    <path d="M72.4 8l-.517.033s-5.25.284-8.316 1.817c-5.4 2.683-8.234 7.117-8.234 12.8v8.667c0 .916.75 1.666 1.667 1.666s1.667-.75 1.667-1.666V22.65c0-4.367 2.1-7.65 6.3-9.767 1.816-.933 3.916-1.166 5.416-1.283v3.05c-2.9.833-6.7 3.067-6.666 7.5v19.167h6.666v26.666l-6.85-7.716c.134-.734.2-1.5.2-2.284 0-7.35-5.983-13.333-13.333-13.333-6.817 0-12.467 5.167-13.233 11.783h-3.584c-.766-6.633-6.416-11.8-13.25-11.8-2.4 0-4.666.65-6.616 1.767v-5.117l10.066-4.966 26.65.033c.867 0 1.6-.667 1.684-1.517.016-.266.05-.533-.034-.816l-4.466-18.134a1.663 1.663 0 0 0-1.834-1.216H25.65c-.8 0-1.617.483-1.783 1.233-.084.2-.134.417-.134.65v11.517c0 .916.75 1.666 1.667 1.666s1.65-.733 1.667-1.65V18l9.983-.017v15.034H23.733v.016L11.4 38.483c-.567.134-1 .65-1.017 1.267v9.35C8.283 51.467 7 54.567 7 57.967 7 65.317 12.983 71.3 20.333 71.3c6.734 0 12.317-5.033 13.2-11.533h3.65c.884 6.5 6.467 11.55 13.217 11.55 5.217 0 9.75-3.017 11.933-7.4L68.5 70.75c.25.35.65.583 1.1.583h2.767c.733 0 1.333-.6 1.333-1.333V39.283c-.033-.7-.6-1.266-1.267-1.3h-5.366V22.15C67.033 18.5 72.4 17.6 72.4 17.6c.75-.133 1.383-.683 1.333-1.333V9.333C73.733 8.6 73.133 8 72.4 8zm-32.033 9.967l4.35.016 3.616 15.034h-7.966v-15.05zm16.7 19.966A1.66 1.66 0 0 0 55.4 39.6c0 .917.75 1.667 1.667 1.667.916 0 1.666-.75 1.666-1.667s-.75-1.667-1.666-1.667zM20.3 47.967c5.517 0 10 4.483 10 10 0 5.516-4.483 10-10 10s-10-4.484-10-10c0-5.517 4.483-10 10-10zm30.083.016c5.517 0 10 4.484 10 10 0 5.517-4.5 10-10 10-5.516 0-10-4.483-10-10 0-5.516 4.484-10 10-10zm-30 5.167c-2.75 0-5 2.25-5 5s2.25 5 5 5 5-2.25 5-5-2.25-5-5-5zm30.1 0c-2.75 0-5 2.25-5 5s2.25 5 5 5 5-2.25 5-5-2.233-5-5-5zm-30.1 3.333c.917 0 1.667.75 1.667 1.667s-.75 1.667-1.667 1.667c-.916 0-1.666-.75-1.666-1.667s.75-1.667 1.666-1.667zm30.1 0c.917 0 1.667.75 1.667 1.667s-.75 1.667-1.667 1.667c-.916 0-1.666-.75-1.666-1.667s.75-1.667 1.666-1.667z" fill="#ADB5BD" fill-rule="evenodd"/>
</svg>
